images/3234762.svg

<?xml version="1.0" encoding="UTF-8"?>
<svg xmlns="http://www.w3.org/2000/svg" xmlns:xlink="http://www.w3.org/1999/xlink" width="300pt" height="300pt" viewBox="0 0 300 300" version="1.1">
<defs>
<g>
<symbol overflow="visible" id="glyph0-0">
<path style="stroke:none;" d="M 0.546875 1.9375 L 0.546875 -7.75 L 6.046875 -7.75 L 6.046875 1.9375 Z M 1.171875 1.328125 L 5.4375 1.328125 L 5.4375 -7.140625 L 1.171875 -7.140625 Z M 1.171875 1.328125 "/>
</symbol>
<symbol overflow="visible" id="glyph0-1">
<path style="stroke:none;" d="M 4.328125 -7.28125 C 3.546875 -7.28125 2.921875 -6.984375 2.453125 -6.390625 C 1.992188 -5.804688 1.765625 -5.007812 1.765625 -4 C 1.765625 -2.988281 1.992188 -2.1875 2.453125 -1.59375 C 2.921875 -1.007812 3.546875 -0.71875 4.328125 -0.71875 C 5.117188 -0.71875 5.742188 -1.007812 6.203125 -1.59375 C 6.660156 -2.1875 6.890625 -2.988281 6.890625 -4 C 6.890625 -5.007812 6.660156 -5.804688 6.203125 -6.390625 C 5.742188 -6.984375 5.117188 -7.28125 4.328125 -7.28125 Z M 4.328125 -8.171875 C 5.453125 -8.171875 6.351562 -7.789062 7.03125 -7.03125 C 7.707031 -6.28125 8.046875 -5.269531 8.046875 -4 C 8.046875 -2.738281 7.707031 -1.726562 7.03125 -0.96875 C 6.351562 -0.21875 5.453125 0.15625 4.328125 0.15625 C 3.203125 0.15625 2.300781 -0.21875 1.625 -0.96875 C 0.957031 -1.71875 0.625 -2.726562 0.625 -4 C 0.625 -5.269531 0.957031 -6.28125 1.625 -7.03125 C 2.300781 -7.789062 3.203125 -8.171875 4.328125 -8.171875 Z M 4.328125 -8.171875 "/>
</symbol>
<symbol overflow="visible" id="glyph0-2">
<path style="stroke:none;" d="M 1.078125 -8.015625 L 2.546875 -8.015625 L 6.09375 -1.3125 L 6.09375 -8.015625 L 7.15625 -8.015625 L 7.15625 0 L 5.6875 0 L 2.125 -6.703125 L 2.125 0 L 1.078125 0 Z M 1.078125 -8.015625 "/>
</symbol>
<symbol overflow="visible" id="glyph0-3">
<path style="stroke:none;" d="M 1.078125 -8.015625 L 2.171875 -8.015625 L 2.171875 -4.734375 L 6.109375 -4.734375 L 6.109375 -8.015625 L 7.1875 -8.015625 L 7.1875 0 L 6.109375 0 L 6.109375 -3.8125 L 2.171875 -3.8125 L 2.171875 0 L 1.078125 0 Z M 1.078125 -8.015625 "/>
</symbol>
</g>
</defs>
<g id="surface45321">
<rect x="0" y="0" width="300" height="300" style="fill:rgb(100%,100%,100%);fill-opacity:1;stroke:none;"/>
<path style="fill:none;stroke-width:1.2;stroke-linecap:butt;stroke-linejoin:miter;stroke:rgb(0%,0%,0%);stroke-opacity:1;stroke-miterlimit:10;" d="M 35.25 189.359375 L 46.976562 184.050781 "/>
<path style="fill:none;stroke-width:1.2;stroke-linecap:butt;stroke-linejoin:miter;stroke:rgb(100%,0%,0%);stroke-opacity:1;stroke-miterlimit:10;" d="M 46.976562 184.050781 L 58.707031 178.738281 "/>
<path style="fill:none;stroke-width:1.2;stroke-linecap:butt;stroke-linejoin:miter;stroke:rgb(100%,0%,0%);stroke-opacity:1;stroke-miterlimit:10;" d="M 58.707031 178.738281 L 59.972656 165.929688 "/>
<path style="fill:none;stroke-width:1.2;stroke-linecap:butt;stroke-linejoin:miter;stroke:rgb(0%,0%,0%);stroke-opacity:1;stroke-miterlimit:10;" d="M 59.972656 165.929688 L 61.238281 153.117188 "/>
<path style=" stroke:none;fill-rule:nonzero;fill:rgb(100%,100%,100%);fill-opacity:1;" d="M 54.707031 172.238281 L 63.707031 172.238281 L 63.707031 185.238281 L 54.707031 185.238281 Z M 54.707031 172.238281 "/>
<g style="fill:rgb(100%,0%,0%);fill-opacity:1;">
  <use xlink:href="#glyph0-1" x="54.707031" y="182.139648"/>
</g>
<path style="fill:none;stroke-width:1.2;stroke-linecap:butt;stroke-linejoin:miter;stroke:rgb(0%,0%,0%);stroke-opacity:1;stroke-miterlimit:10;" d="M 61.238281 153.117188 L 40.3125 138.113281 "/>
<path style="fill:none;stroke-width:1.2;stroke-linecap:butt;stroke-linejoin:miter;stroke:rgb(0%,0%,0%);stroke-opacity:1;stroke-miterlimit:10;" d="M 62.675781 146.691406 L 45.9375 134.691406 "/>
<path style="fill:none;stroke-width:1.2;stroke-linecap:butt;stroke-linejoin:miter;stroke:rgb(0%,0%,0%);stroke-opacity:1;stroke-miterlimit:10;" d="M 84.695312 142.496094 L 61.238281 153.117188 "/>
<path style="fill:none;stroke-width:1.2;stroke-linecap:butt;stroke-linejoin:miter;stroke:rgb(0%,0%,0%);stroke-opacity:1;stroke-miterlimit:10;" d="M 40.3125 138.113281 L 42.847656 112.488281 "/>
<path style="fill:none;stroke-width:1.2;stroke-linecap:butt;stroke-linejoin:miter;stroke:rgb(0%,0%,0%);stroke-opacity:1;stroke-miterlimit:10;" d="M 42.847656 112.488281 L 66.300781 101.871094 "/>
<path style="fill:none;stroke-width:1.2;stroke-linecap:butt;stroke-linejoin:miter;stroke:rgb(0%,0%,0%);stroke-opacity:1;stroke-miterlimit:10;" d="M 47.691406 116.945312 L 66.453125 108.453125 "/>
<path style="fill:none;stroke-width:1.2;stroke-linecap:butt;stroke-linejoin:miter;stroke:rgb(0%,0%,0%);stroke-opacity:1;stroke-miterlimit:10;" d="M 66.300781 101.871094 L 87.226562 116.875 "/>
<path style="fill:none;stroke-width:1.2;stroke-linecap:butt;stroke-linejoin:miter;stroke:rgb(0%,0%,0%);stroke-opacity:1;stroke-miterlimit:10;" d="M 87.226562 116.875 L 84.695312 142.496094 "/>
<path style="fill:none;stroke-width:1.2;stroke-linecap:butt;stroke-linejoin:miter;stroke:rgb(0%,0%,0%);stroke-opacity:1;stroke-miterlimit:10;" d="M 80.945312 118.839844 L 78.917969 139.339844 "/>
<path style="fill:none;stroke-width:1.2;stroke-linecap:butt;stroke-linejoin:miter;stroke:rgb(0%,0%,0%);stroke-opacity:1;stroke-miterlimit:10;" d="M 84.695312 142.496094 L 105.621094 157.503906 "/>
<path style="fill:none;stroke-width:1.2;stroke-linecap:butt;stroke-linejoin:miter;stroke:rgb(0%,0%,0%);stroke-opacity:1;stroke-miterlimit:10;" d="M 105.621094 157.503906 L 104.351562 170.3125 "/>
<path style="fill:none;stroke-width:1.2;stroke-linecap:butt;stroke-linejoin:miter;stroke:rgb(0%,0%,100%);stroke-opacity:1;stroke-miterlimit:10;" d="M 104.351562 170.3125 L 103.085938 183.125 "/>
<path style="fill:none;stroke-width:1.2;stroke-linecap:butt;stroke-linejoin:miter;stroke:rgb(0%,0%,0%);stroke-opacity:1;stroke-miterlimit:10;" d="M 111.394531 160.660156 L 110.382812 170.910156 "/>
<path style="fill:none;stroke-width:1.2;stroke-linecap:butt;stroke-linejoin:miter;stroke:rgb(0%,0%,100%);stroke-opacity:1;stroke-miterlimit:10;" d="M 110.382812 170.910156 L 109.371094 181.160156 "/>
<path style="fill:none;stroke-width:1.2;stroke-linecap:butt;stroke-linejoin:miter;stroke:rgb(0%,0%,100%);stroke-opacity:1;stroke-miterlimit:10;" d="M 129.074219 146.882812 L 117.347656 152.191406 "/>
<path style="fill:none;stroke-width:1.2;stroke-linecap:butt;stroke-linejoin:miter;stroke:rgb(0%,0%,0%);stroke-opacity:1;stroke-miterlimit:10;" d="M 117.347656 152.191406 L 105.621094 157.503906 "/>
<path style="fill:none;stroke-width:1.2;stroke-linecap:butt;stroke-linejoin:miter;stroke:rgb(0%,0%,100%);stroke-opacity:1;stroke-miterlimit:10;" d="M 103.085938 183.125 L 113.550781 190.628906 "/>
<path style="fill:none;stroke-width:1.2;stroke-linecap:butt;stroke-linejoin:miter;stroke:rgb(0%,0%,0%);stroke-opacity:1;stroke-miterlimit:10;" d="M 113.550781 190.628906 L 124.011719 198.128906 "/>
<path style=" stroke:none;fill-rule:nonzero;fill:rgb(100%,100%,100%);fill-opacity:1;" d="M 99.085938 176.625 L 107.085938 176.625 L 107.085938 189.625 L 99.085938 189.625 Z M 99.085938 176.625 "/>
<g style="fill:rgb(0%,0%,100%);fill-opacity:1;">
  <use xlink:href="#glyph0-2" x="99.085938" y="186.526367"/>
</g>
<path style="fill:none;stroke-width:1.2;stroke-linecap:butt;stroke-linejoin:miter;stroke:rgb(0%,0%,0%);stroke-opacity:1;stroke-miterlimit:10;" d="M 124.011719 198.128906 L 147.46875 187.511719 "/>
<path style="fill:none;stroke-width:1.2;stroke-linecap:butt;stroke-linejoin:miter;stroke:rgb(0%,0%,0%);stroke-opacity:1;stroke-miterlimit:10;" d="M 123.859375 191.546875 L 142.625 183.054688 "/>
<path style="fill:none;stroke-width:1.2;stroke-linecap:butt;stroke-linejoin:miter;stroke:rgb(0%,0%,0%);stroke-opacity:1;stroke-miterlimit:10;" d="M 147.46875 187.511719 L 150 161.886719 "/>
<path style="fill:none;stroke-width:1.2;stroke-linecap:butt;stroke-linejoin:miter;stroke:rgb(0%,0%,0%);stroke-opacity:1;stroke-miterlimit:10;" d="M 150 161.886719 L 139.539062 154.386719 "/>
<path style="fill:none;stroke-width:1.2;stroke-linecap:butt;stroke-linejoin:miter;stroke:rgb(0%,0%,100%);stroke-opacity:1;stroke-miterlimit:10;" d="M 139.539062 154.386719 L 129.074219 146.882812 "/>
<path style="fill:none;stroke-width:1.2;stroke-linecap:butt;stroke-linejoin:miter;stroke:rgb(0%,0%,0%);stroke-opacity:1;stroke-miterlimit:10;" d="M 144.378906 165.308594 L 136.007812 159.308594 "/>
<path style="fill:none;stroke-width:1.2;stroke-linecap:butt;stroke-linejoin:miter;stroke:rgb(0%,0%,100%);stroke-opacity:1;stroke-miterlimit:10;" d="M 136.007812 159.308594 L 127.636719 153.308594 "/>
<path style="fill:none;stroke-width:1.2;stroke-linecap:butt;stroke-linejoin:miter;stroke:rgb(0%,0%,0%);stroke-opacity:1;stroke-miterlimit:10;" d="M 150 161.886719 L 161.726562 156.578125 "/>
<path style="fill:none;stroke-width:1.2;stroke-linecap:butt;stroke-linejoin:miter;stroke:rgb(0%,0%,100%);stroke-opacity:1;stroke-miterlimit:10;" d="M 161.726562 156.578125 L 173.457031 151.269531 "/>
<path style=" stroke:none;fill-rule:nonzero;fill:rgb(100%,100%,100%);fill-opacity:1;" d="M 125.074219 140.382812 L 133.074219 140.382812 L 133.074219 153.382812 L 125.074219 153.382812 Z M 125.074219 140.382812 "/>
<g style="fill:rgb(0%,0%,100%);fill-opacity:1;">
  <use xlink:href="#glyph0-2" x="125.074219" y="150.28418"/>
</g>
<path style="fill:none;stroke-width:1.2;stroke-linecap:butt;stroke-linejoin:miter;stroke:rgb(0%,0%,100%);stroke-opacity:1;stroke-miterlimit:10;" d="M 173.457031 151.269531 L 183.917969 158.769531 "/>
<path style="fill:none;stroke-width:1.2;stroke-linecap:butt;stroke-linejoin:miter;stroke:rgb(0%,0%,0%);stroke-opacity:1;stroke-miterlimit:10;" d="M 183.917969 158.769531 L 194.378906 166.273438 "/>
<path style=" stroke:none;fill-rule:nonzero;fill:rgb(100%,100%,100%);fill-opacity:1;" d="M 165.457031 144.769531 L 182.457031 144.769531 L 182.457031 157.769531 L 165.457031 157.769531 Z M 165.457031 144.769531 "/>
<g style="fill:rgb(0%,0%,100%);fill-opacity:1;">
  <use xlink:href="#glyph0-2" x="165.457031" y="154.670898"/>
  <use xlink:href="#glyph0-3" x="173.44043" y="154.670898"/>
</g>
<path style="fill:none;stroke-width:1.2;stroke-linecap:butt;stroke-linejoin:miter;stroke:rgb(0%,0%,0%);stroke-opacity:1;stroke-miterlimit:10;" d="M 194.378906 166.273438 L 217.835938 155.652344 "/>
<path style="fill:none;stroke-width:1.2;stroke-linecap:butt;stroke-linejoin:miter;stroke:rgb(0%,0%,0%);stroke-opacity:1;stroke-miterlimit:10;" d="M 217.835938 155.652344 L 238.761719 170.660156 "/>
<path style="fill:none;stroke-width:1.2;stroke-linecap:butt;stroke-linejoin:miter;stroke:rgb(0%,0%,0%);stroke-opacity:1;stroke-miterlimit:10;" d="M 223.460938 152.230469 L 240.199219 164.234375 "/>
<path style="fill:none;stroke-width:1.2;stroke-linecap:butt;stroke-linejoin:miter;stroke:rgb(0%,0%,0%);stroke-opacity:1;stroke-miterlimit:10;" d="M 220.371094 130.03125 L 217.835938 155.652344 "/>
<path style="fill:none;stroke-width:1.2;stroke-linecap:butt;stroke-linejoin:miter;stroke:rgb(0%,0%,0%);stroke-opacity:1;stroke-miterlimit:10;" d="M 238.761719 170.660156 L 250.488281 165.347656 "/>
<path style="fill:none;stroke-width:1.2;stroke-linecap:butt;stroke-linejoin:miter;stroke:rgb(0%,0%,100%);stroke-opacity:1;stroke-miterlimit:10;" d="M 250.488281 165.347656 L 262.21875 160.039062 "/>
<path style="fill:none;stroke-width:1.2;stroke-linecap:butt;stroke-linejoin:miter;stroke:rgb(0%,0%,100%);stroke-opacity:1;stroke-miterlimit:10;" d="M 262.21875 160.039062 L 263.484375 147.226562 "/>
<path style="fill:none;stroke-width:1.2;stroke-linecap:butt;stroke-linejoin:miter;stroke:rgb(0%,0%,0%);stroke-opacity:1;stroke-miterlimit:10;" d="M 263.484375 147.226562 L 264.75 134.417969 "/>
<path style="fill:none;stroke-width:1.2;stroke-linecap:butt;stroke-linejoin:miter;stroke:rgb(0%,0%,100%);stroke-opacity:1;stroke-miterlimit:10;" d="M 256.441406 156.882812 L 257.453125 146.632812 "/>
<path style="fill:none;stroke-width:1.2;stroke-linecap:butt;stroke-linejoin:miter;stroke:rgb(0%,0%,0%);stroke-opacity:1;stroke-miterlimit:10;" d="M 257.453125 146.632812 L 258.46875 136.382812 "/>
<path style=" stroke:none;fill-rule:nonzero;fill:rgb(100%,100%,100%);fill-opacity:1;" d="M 258.21875 153.539062 L 266.21875 153.539062 L 266.21875 166.539062 L 258.21875 166.539062 Z M 258.21875 153.539062 "/>
<g style="fill:rgb(0%,0%,100%);fill-opacity:1;">
  <use xlink:href="#glyph0-2" x="258.21875" y="163.44043"/>
</g>
<path style="fill:none;stroke-width:1.2;stroke-linecap:butt;stroke-linejoin:miter;stroke:rgb(0%,0%,0%);stroke-opacity:1;stroke-miterlimit:10;" d="M 264.75 134.417969 L 243.824219 119.410156 "/>
<path style="fill:none;stroke-width:1.2;stroke-linecap:butt;stroke-linejoin:miter;stroke:rgb(0%,0%,0%);stroke-opacity:1;stroke-miterlimit:10;" d="M 243.824219 119.410156 L 220.371094 130.03125 "/>
<path style="fill:none;stroke-width:1.2;stroke-linecap:butt;stroke-linejoin:miter;stroke:rgb(0%,0%,0%);stroke-opacity:1;stroke-miterlimit:10;" d="M 243.976562 125.992188 L 225.214844 134.488281 "/>
</g>
</svg>

<svg xmlns="http://www.w3.org/2000/svg" xmlns:xlink="http://www.w3.org/1999/xlink" width="300pt" height="300pt" viewBox="0 0 300 300"><defs><symbol overflow="visible"><path d="M.547 1.938V-7.75h5.5v9.688zm.625-.61h4.266v-8.47H1.171zm0 0"/></symbol><symbol overflow="visible" id="a"><path d="M4.328-7.28c-.78 0-1.406.296-1.875.89-.46.585-.687 1.382-.687 2.39 0 1.012.226 1.813.687 2.406.47.586 1.094.875 1.875.875.79 0 1.414-.288 1.875-.874.457-.593.688-1.394.688-2.406 0-1.008-.23-1.805-.687-2.39-.46-.594-1.086-.89-1.875-.89zm0-.892c1.125 0 2.024.383 2.703 1.14C7.708-6.28 8.048-5.27 8.048-4c0 1.262-.34 2.273-1.016 3.03C6.353-.22 5.454.157 4.33.157S2.3-.22 1.625-.97c-.668-.75-1-1.757-1-3.03 0-1.27.332-2.28 1-3.03.676-.76 1.578-1.142 2.703-1.142zm0 0"/></symbol><symbol overflow="visible" id="b"><path d="M1.078-8.016h1.47l3.546 6.704v-6.704h1.062V0H5.688L2.124-6.703V0H1.078zm0 0"/></symbol><symbol overflow="visible" id="c"><path d="M1.078-8.016h1.094v3.282H6.11v-3.282h1.077V0H6.11v-3.813H2.17V0H1.078zm0 0"/></symbol></defs><g><path fill="#fff" d="M0 0h300v300H0z"/><path d="M35.25 189.36l11.727-5.31" stroke-width="1.2" stroke="#000" stroke-miterlimit="10" fill="none"/><path d="M46.977 184.05l11.73-5.312M58.707 178.738l1.266-12.808" stroke-width="1.2" stroke="#f00" stroke-miterlimit="10" fill="none"/><path d="M59.973 165.93l1.265-12.813" stroke-width="1.2" stroke="#000" stroke-miterlimit="10" fill="none"/><path d="M54.707 172.238h9v13h-9zm0 0" fill="#fff"/><use xlink:href="#a" x="54.707" y="182.14" fill="#f00"/><path d="M61.238 153.117l-20.925-15.004M62.676 146.69l-16.74-12M84.695 142.496l-23.457 10.62M40.313 138.113l2.535-25.625M42.848 112.488L66.3 101.87M47.69 116.945l18.763-8.492M66.3 101.87l20.927 15.005M87.227 116.875l-2.532 25.62M80.945 118.84l-2.027 20.5M84.695 142.496l20.926 15.008M105.62 157.504l-1.268 12.81" stroke-width="1.2" stroke="#000" stroke-miterlimit="10" fill="none"/><path d="M104.352 170.313l-1.266 12.812" stroke-width="1.2" stroke="#00f" stroke-miterlimit="10" fill="none"/><path d="M111.395 160.66l-1.012 10.25" stroke-width="1.2" stroke="#000" stroke-miterlimit="10" fill="none"/><path d="M110.383 170.91l-1.012 10.25M129.074 146.883l-11.726 5.308" stroke-width="1.2" stroke="#00f" stroke-miterlimit="10" fill="none"/><path d="M117.348 152.19l-11.727 5.314" stroke-width="1.2" stroke="#000" stroke-miterlimit="10" fill="none"/><path d="M103.086 183.125l10.465 7.504" stroke-width="1.2" stroke="#00f" stroke-miterlimit="10" fill="none"/><path d="M113.55 190.63l10.462 7.5" stroke-width="1.2" stroke="#000" stroke-miterlimit="10" fill="none"/><path d="M99.086 176.625h8v13h-8zm0 0" fill="#fff"/><use xlink:href="#b" x="99.086" y="186.526" fill="#00f"/><path d="M124.012 198.13l23.457-10.618M123.86 191.547l18.765-8.492M147.47 187.512l2.53-25.625M150 161.887l-10.46-7.5" stroke-width="1.2" stroke="#000" stroke-miterlimit="10" fill="none"/><path d="M139.54 154.387l-10.466-7.504" stroke-width="1.2" stroke="#00f" stroke-miterlimit="10" fill="none"/><path d="M144.38 165.31l-8.372-6" stroke-width="1.2" stroke="#000" stroke-miterlimit="10" fill="none"/><path d="M136.008 159.31l-8.37-6" stroke-width="1.2" stroke="#00f" stroke-miterlimit="10" fill="none"/><path d="M150 161.887l11.727-5.31" stroke-width="1.2" stroke="#000" stroke-miterlimit="10" fill="none"/><path d="M161.727 156.578l11.73-5.308" stroke-width="1.2" stroke="#00f" stroke-miterlimit="10" fill="none"/><path d="M125.074 140.383h8v13h-8zm0 0" fill="#fff"/><use xlink:href="#b" x="125.074" y="150.284" fill="#00f"/><path d="M173.457 151.27l10.46 7.5" stroke-width="1.2" stroke="#00f" stroke-miterlimit="10" fill="none"/><path d="M183.918 158.77l10.46 7.503" stroke-width="1.2" stroke="#000" stroke-miterlimit="10" fill="none"/><path d="M165.457 144.77h17v13h-17zm0 0" fill="#fff"/><g fill="#00f"><use xlink:href="#b" x="165.457" y="154.671"/><use xlink:href="#c" x="173.44" y="154.671"/></g><path d="M194.38 166.273l23.456-10.62M217.836 155.652l20.926 15.008M223.46 152.23l16.74 12.004M220.37 130.03l-2.534 25.622M238.762 170.66l11.726-5.312" stroke-width="1.2" stroke="#000" stroke-miterlimit="10" fill="none"/><path d="M250.488 165.348l11.73-5.31M262.22 160.04l1.264-12.813" stroke-width="1.2" stroke="#00f" stroke-miterlimit="10" fill="none"/><path d="M263.484 147.227l1.266-12.81" stroke-width="1.2" stroke="#000" stroke-miterlimit="10" fill="none"/><path d="M256.44 156.883l1.013-10.25" stroke-width="1.2" stroke="#00f" stroke-miterlimit="10" fill="none"/><path d="M257.453 146.633l1.016-10.25" stroke-width="1.2" stroke="#000" stroke-miterlimit="10" fill="none"/><path d="M258.22 153.54h8v13h-8zm0 0" fill="#fff"/><use xlink:href="#b" x="258.219" y="163.44" fill="#00f"/><path d="M264.75 134.418l-20.926-15.008M243.824 119.41l-23.453 10.62M243.977 125.992l-18.762 8.496" stroke-width="1.2" stroke="#000" stroke-miterlimit="10" fill="none"/></g></svg>
